icons/running_water.svg

<svg width="48" height="48" viewBox="0 0 48 48" fill="none" xmlns="http://www.w3.org/2000/svg">
<path fill-rule="evenodd" clip-rule="evenodd" d="M8 12L8 6H6V42H8L8 22H11V24H25V20.6667H28C29.1046 20.6667 30 21.5621 30 22.6667V23H28V31H42V23H40V22C40 16.4772 35.5228 12 30 12H25V10H19V8H26C26.5523 8 27 7.55228 27 7C27 6.44772 26.5523 6 26 6H10C9.44771 6 9 6.44772 9 7C9 7.55228 9.44771 8 10 8H17V10H11V12H8ZM38 22C38 17.5817 34.4183 14 30 14H25V18.6667H28C30.2091 18.6667 32 20.4575 32 22.6667V23H38V22ZM40 25H30V29H40V25ZM23 12H13V22H23V12ZM11 20H8V14H11V20Z" fill="black"/>
<path fill-rule="evenodd" clip-rule="evenodd" d="M35.5 42C37.433 42 39 40.3719 39 38.3636C39 35.1818 35.5 32 35.5 32C35.5 32 32 35.1818 32 38.3636C32 40.3719 33.567 42 35.5 42ZM35.5 40C36.2571 40 37 39.3401 37 38.3636C37 37.4318 36.4476 36.2765 35.6372 35.1714C35.5915 35.109 35.5457 35.0478 35.5 34.9879C35.4543 35.0478 35.4085 35.109 35.3628 35.1714C34.5524 36.2765 34 37.4318 34 38.3636C34 39.3401 34.7429 40 35.5 40Z" fill="black"/>
</svg>

<svg
  xmlns="http://www.w3.org/2000/svg"
  width="24"
  height="24"
  viewBox="0 0 24 24"
  fill="none"
  stroke="currentColor"
  stroke-width="2"
  stroke-linecap="round"
  stroke-linejoin="round"
>
  <path
    fill-rule="evenodd"
    d="M8 12V6H6v36h2V22h3v2h14v-3.333h3a2 2 0 0 1 2 2V23h-2v8h14v-8h-2v-1c0-5.523-4.477-10-10-10h-5v-2h-6V8h7a1 1 0 1 0 0-2H10a1 1 0 1 0 0 2h7v2h-6v2zm30 10a8 8 0 0 0-8-8h-5v4.667h3a4 4 0 0 1 4 4V23h6zm2 3H30v4h10zM23 12H13v10h10zm-12 8H8v-6h3z"
    clip-rule="evenodd"
  />
  <path
    fill-rule="evenodd"
    d="M35.5 42c1.933 0 3.5-1.628 3.5-3.636C39 35.182 35.5 32 35.5 32S32 35.182 32 38.364C32 40.372 33.567 42 35.5 42m0-2c.757 0 1.5-.66 1.5-1.636 0-.932-.552-2.087-1.363-3.193l-.137-.183q-.07.09-.137.183c-.81 1.105-1.363 2.26-1.363 3.193 0 .976.743 1.636 1.5 1.636"
    clip-rule="evenodd"
  />
</svg>
